vice/share/icons/Adwaita/scalable/ui/focus-legacy-systray-symbolic.svg

<?xml version="1.0" encoding="UTF-8"?>
<svg height="16px" viewBox="0 0 16 16" width="16px" xmlns="http://www.w3.org/2000/svg">
    <path d="m 7.933594 2 l -7.933594 0.011719 l -0.00390625 11.96875 h 9.96875025 l 0.027344 -9.917969 c 0.003906 -1.125 -0.933594 -2.0625 -2.058594 -2.0625 z m 2.050781 0.03125 s 1.03125 0.484375 1.03125 1.96875 v 10 h 0.984375 v -10 c 0 -1.25 -2.015625 -1.96875 -2.015625 -1.96875 z m 1.984375 0 s 1.03125 0.484375 1.03125 1.96875 v 10 h 1 v -10 c 0 -1.25 -2.03125 -1.96875 -2.03125 -1.96875 z m -8.953125 2.96875 h 1 c 0.308594 0 0.550781 0.089844 0.75 0.28125 l 2.65625 2.71875 l -2.65625 2.71875 c -0.199219 0.191406 -0.441406 0.28125 -0.75 0.28125 h -1 v -1 c 0 -0.257812 0.128906 -0.527344 0.3125 -0.71875 l 1.28125 -1.28125 l -1.28125 -1.28125 c -0.183594 -0.191406 -0.3125 -0.460938 -0.3125 -0.71875 z m 0 0" fill="#2e3436"/>
</svg>

<svg xmlns="http://www.w3.org/2000/svg" width="16.002" height="16"><g color="#000" fill="#2e3436"><path d="M7.936 2l-7.934.01L0 13.979h9.969l.027-9.918C9.996 2.936 9.06 2 7.936 2zM3.018 5h1c.31 0 .552.09.75.281L7.424 8l-2.656 2.719c-.198.19-.44.281-.75.281h-1v-1c0-.257.13-.528.312-.719L4.611 8l-1.28-1.281c-.184-.19-.313-.462-.313-.719z" style="line-height:normal;text-indent:0;text-align:start;text-decoration-line:none;text-decoration-style:solid;text-decoration-color:#000;text-transform:none;white-space:normal;isolation:auto;mix-blend-mode:normal;solid-color:#000;solid-opacity:1;marker:none" font-weight="400" font-family="sans-serif" overflow="visible"/><path d="M9.986 2.031s1.032.484 1.032 1.969v10h.984V4c0-1.25-2.016-1.969-2.016-1.969zM11.97 2.031s1.032.484 1.032 1.969v10h1V4c0-1.25-2.031-1.969-2.031-1.969z" style="isolation:auto;mix-blend-mode:normal;solid-color:#000;solid-opacity:1;marker:none" overflow="visible"/></g></svg>
